X: 5
T: The Irish Washerwoman
R: jig
M: 6/8
L: 1/8
K: Gmaj
A|~B2 G DGB|DGB dcB|~cBc ~EAc|~EAc ~edc|~B3 DGB|DGB ~dcB|~cBc BGB|~BAF ~G2 A||BAB DGB|~DGB dcB|~c3 ~E3|~c3 edc|~B2 G DGB|DGB dcB|cBc ~BGB|~BAF ~G2 g||gfg Bdg|~Bdg bag|~f3 Adf|~Adf agf|~gbg faf|~gfe dBG|~c3 BGB|BAF Gef||gfg Bdg|Bdg bag|~f3 ~Adf|~Adf agf|~gbg faf|~gfe dBG|~c3 ed^c|dfa gdc|]


Tune 92	Setting 25138

